X:1
T:His Grace Is Enough for Me
T:His Grace Is Enough for Me
T:J. Bruce Evans
T:J. Bruce Evans, 1906
T:Public Domain Courtesy of the Cyber Hymnal™
T:Public Domain Courtesy of the Cyber Hymnal™
C:J. Bruce Evans
Z:Public Domain
Z:Courtesy of the Cyber Hymnal™
%%score 1 ( 2 3 )
L:1/8
Q:1/4=105
M:6/8
K:Bb
V:1 treble 
V:2 bass 
V:3 bass 
V:1
 [DF][EG][DF] [B,D]2 [DB] | [EB]3 [EA]2 z | [EA][Ec][EA] [EG]2 [EA] | [DF]3- [DF]2 z | %4
w: 1.~Just when I am dis-|heart- ened,|Just when with cares op-|pressed, *|
w: 2.~Just when my hopes are|van- ished,|Just when my friends for-|sake, *|
w: 3.~Just when my tears are|flow- ing,|Just when with ang- uish|bent, *|
 [DF][EG][DF] [B,D]2 [DB] | [DB]3 [CA]2 z | [=EG][EA][EB] [EA]2 [EG] | [Ec]3- [Ec]2 z | %8
w: Just when my way is|dark- est,|Just when I am dis-|tressed— *|
w: Just when the fight is|thick- est,|Just when with fear I|shake— *|
w: Just when tempt- a- tion’s|hard- est,|Just when with sad- ness|rent— *|
 [DF][EG][DF] [B,D]2 [DB] | [EB]3 [EA]2 z | [EA][Ec][EA] [EG]2 [EA] | [DF]3- [DF]2 z | %12
w: Then is my Sav- ior|near me,|He knows my ev- ery|care; *|
w: Then comes a still small|whis- per:|“Fear not, My child, I’m|near.” *|
w: Then comes a thought of|com- fort:|“I know my Fa- ther|knows.” *|
 [EG][E^F][EG] [EB]2 [EG] | [DF]3 [Fd]3 | [=Ec][EG][EB] [_EA]2 [Ec] | [DB]3- [DB]2 || %16
w: Je- sus will nev- er|leave me,|He helps my bur- dens|bear. *|
w: Je- sus brings peace and|com- fort,|I love His voice to|hear. *|
w: Je- sus has grace suf-|fi- cient|To con- quer all my|foes. *|
"^Refrain" [DF][DF][^C=E] [DF] [_EG]2 [E_G] | [DF]2 [DB] [Fd]2 [^Fc] | [GB][^FA][Fc] [GB]2 [EG] | %19
w: |||
w: |||
w: |||
 [DF]3- [DF]2 [DF] | [EG][E^F][EG] [EB]2 [EG] | [DF]2 [DB] !fermata![Ee]2 [Fd] | %22
w: |||
w: |||
w: |||
 [=Ec][EG][EB] [_EA]2 [Ec] | [DB]3- [DB]2 z |] x6 |] %25
w: |||
w: |||
w: |||
V:2
 [B,,B,][B,,B,][B,,B,] [B,,F,]2 [B,,F,] | [B,,F,]3 [C,F,]2 z | F,[F,A,][F,C] [F,A,]2 [F,C] | %3
w: ~ ~ ~ ~ ~|~ ~|~ ~ ~ ~ ~|
 B,3- B,2 z | [B,,B,][B,,B,][B,,B,] [B,,F,]2 [B,,F,] | F,3 F,2 z | %6
w: ~ *|~ ~ ~ ~ ~|~ ~|
 [C,B,][C,A,][C,G,] [C,C]2 [C,B,] | [F,,F,A,-]3 [F,,F,A,]2 z | %8
w: ~ ~ ~ ~ ~|~ ~|
 [B,,B,][B,,B,][B,,B,] [B,,F,]2 [B,,F,] | [C,F,]3 [C,F,]2 z | F,[F,A,][F,C] [F,A,]2 [F,C] | %11
w: ~ ~ ~ ~ ~|~ ~|~ ~ ~ ~ ~|
 B,3- B,2 z | [E,B,][E,A,][E,B,] [G,B,]2 [E,B,] | [B,,B,]3 [G,,G,=B,]3 | %14
w: ~ *|~ ~ ~ ~ ~|~ ~|
 [C,B,][C,B,][C,G,] F,2 [F,A,] | [B,,B,]3- [B,,B,]2 || [B,,B,] x6 | %17
w: ~ ~ ~ ~ ~|His *|grace|
 [B,,B,][B,,B,][B,,B,] [B,,B,]2 [B,,B,] | [B,,B,]2 [B,,F,] [B,,B,]2 [D,B,] | %19
w: is e- nough for me,|for me, His grace|
 [E,B,][E,C][E,A,] [E,B,]2 [E,B,] | [B,,B,]3- [B,,B,]2 [B,,B,] | %21
w: is e- nough for me;|Through * sor-|
 [E,B,][E,B,][E,B,] !fermata![E,B,]2 [E,B,] | B,2 [_A,B,] !fermata![G,B,]2 [F,B,] | %23
w: row and pain, Through loss|or gain, His grace|
 [G,B,][G,C][C,C] [F,C]2 [F,A,] |] [B,,B,]3- [B,,B,]2 z |] %25
w: is e- nough for me.||
V:3
 x6 | x6 | F, x5 | B,3- B,2 x | x6 | F,3 F,2 x | x6 | x6 | x6 | x6 | F, x5 | B,3- B,2 x | x6 | x6 | %14
 x3 F,2 x | x5 || x7 | x6 | x6 | x6 | x6 | x6 | B,2 x4 | x6 |] x6 |] %25

